X: 13841
T: Four Six, The
R: jig
M: 6/8
K: Amajor
cAF ~E3|~A3 cde|d2B BAB|gfe ded|
cAF ~E3|~A3 cde|dfb cea|1 BAG A2e:|2 BAG A2B||
|:c2a eca|Ace aec|~d2b fdb|~f3 bfd|
c2a eca|Ace aec|dfb cea|1 BAG A2B:|2 BAG A2e||

